X:1
T:Title
%%score { ( 1 3 ) | ( 2 4 ) }
L:1/8
Q:1/4=100
M:4/4
K:Db
V:1 treble nm="Grand Piano"
V:3 treble 
V:2 bass 
V:4 bass 
V:1
 [A,FA]2 [A,DF][A,EG] [DFA]2 [A,DF][A,EG] | [FA]2 [Fd]2 [FA]4 | c2 BA c2 BA | G2 A2 F4 | %4
w: Grant~Colfax~Tullar * * * * *||||
 [FA]2 [DF][EG] [FA]2 [DF][EG] | [FA]2 [GB]2 [Fd]4 | c_c=cd e2 z F, | c2 B2 [A,A]4 | %8
w: ||||
 [Fd]2 [Fc][Fe] [Fd]2 F[Fd] | [Gc]2 [F_c]2 [G=c]4 | GFGA c2 Bc | %11
w: |||
 [DGB]2 [B,_F=G]2 [A,=FA]2 [A,DF][A,E_G] | [DFA]2 [B,_F=G][A,=FA] [Fd]2 [_Gc][Ad] | %13
w: ||
 [Ge]2 [Bd]2 [Ac]2 BB | A2 dd c2 e2 | [Fd]6 z2 |] %16
w: |||
V:2
 D,2 D,D, D,2 D,D, | [D,D]2 [D,D]2 [D,D]4 | [A,EG]2 [A,DG][A,CG] [A,EG]2 [A,DE][K:bass][A,CE] | %3
 [A,CE]2 [A,C]2 [D,A,D]4 | [D,A,]2 [D,A,][D,A,] [D,D]2 [D,A,][D,A,] | [D,D]2 [D,B,]2 [D,A,]4 | %6
 [E,A,E][E,=G,E][E,A,E][E,B,E] [E,CE]2 .[B,,B,]2 | [E,A,E]2 [E,=G,D]2 z2 G2 | %8
 [D,A,]2 [D,A,][D,A,] [D,A,]2 [D,A,][D,A,] | [E,A,]2 [=D,A,]2 [E,A,]4 | %10
 [A,CE][A,C=D][A,CE][A,CF] [A,EG]2 [A,CG]2 | D,2 D,2 D,2 D,D, | D,2 D,D, [D,A,]2 [E,A,][F,D] | %13
 [G,B,]2 [G,B,]2 [G,C]2[K:treble] [G,DG][G,DG] | [A,DF]2 [A,FA][A,FA] [A,EG]2 [A,CG]2 | %15
 [D,D]6 z2 |] %16
V:3
 x8 | x8 | x8 | x8 | x8 | x8 | z4 z2 [Fd]2 | z4 C2 z2 | x8 | x8 | x8 | x8 | x8 | x8 | x8 | x8 |] %16
V:4
 x8 | x8 | x7[K:bass] x | x8 | x8 | x8 | x8 | z4 A,,4 | x8 | x8 | x8 | x8 | x8 | x6[K:treble] x2 | %14
 x8 | x8 |] %16

